images/XCHF.svg

<svg height="250" viewBox="0 0 250 250" width="250" xmlns="http://www.w3.org/2000/svg"><path d="m80.167969 147.035156-6.859375-16.808594-36.277344 89.125h21.992188l89.003906-218.929687 101.222656 248.871094h-127.539062l-21.242188-52.257813 12.03125-29.664062 21.148438 51.980468h79.320312l-64.941406-159.746093-77.164063 189.6875h-70.015625l72.460938-178.246094 18.890625 46.46875zm0 0" fill="#ce0e2d" fill-rule="evenodd"/></svg>

<?xml version="1.0" encoding="UTF-8"?>
<svg xmlns="http://www.w3.org/2000/svg" xmlns:xlink="http://www.w3.org/1999/xlink" width="250px" height="250px" viewBox="0 0 250 250" version="1.1">
<g id="surface1">
<path style=" stroke:none;fill-rule:evenodd;fill:rgb(80.784315%,5.490196%,17.647059%);fill-opacity:1;" d="M 80.167969 147.035156 L 73.308594 130.226562 L 37.03125 219.351562 L 59.023438 219.351562 L 148.027344 0.421875 L 249.25 249.292969 L 121.710938 249.292969 L 100.46875 197.035156 L 112.5 167.371094 L 133.648438 219.351562 L 212.96875 219.351562 L 148.027344 59.605469 L 70.863281 249.292969 L 0.847656 249.292969 L 73.308594 71.046875 L 92.199219 117.515625 Z M 80.167969 147.035156 "/>
</g>
</svg>
